src/view/frontend/web/svg/heroicons/solid/presentation-chart-line.svg

<svg viewBox="0 0 20 20" fill="currentColor" xmlns="http://www.w3.org/2000/svg">
<path fill-rule="evenodd" clip-rule="evenodd" d="M3 3C2.44772 3 2 3.44772 2 4C2 4.55228 2.44772 5 3 5V13C3 14.1046 3.89543 15 5 15H7.58579L6.29289 16.2929C5.90237 16.6834 5.90237 17.3166 6.29289 17.7071C6.68342 18.0976 7.31658 18.0976 7.70711 17.7071L10 15.4142L12.2929 17.7071C12.6834 18.0976 13.3166 18.0976 13.7071 17.7071C14.0976 17.3166 14.0976 16.6834 13.7071 16.2929L12.4142 15H15C16.1046 15 17 14.1046 17 13V5C17.5523 5 18 4.55228 18 4C18 3.44772 17.5523 3 17 3H3ZM14.7071 7.70711C15.0976 7.31658 15.0976 6.68342 14.7071 6.29289C14.3166 5.90237 13.6834 5.90237 13.2929 6.29289L10 9.58579L8.70711 8.29289C8.31658 7.90237 7.68342 7.90237 7.29289 8.29289L5.29289 10.2929C4.90237 10.6834 4.90237 11.3166 5.29289 11.7071C5.68342 12.0976 6.31658 12.0976 6.70711 11.7071L8 10.4142L9.29289 11.7071C9.68342 12.0976 10.3166 12.0976 10.7071 11.7071L14.7071 7.70711Z" />
</svg>

<svg xmlns="http://www.w3.org/2000/svg" fill="currentColor" viewBox="0 0 20 20"><path fill-rule="evenodd" d="M3 3a1 1 0 0 0 0 2v8a2 2 0 0 0 2 2h2.586l-1.293 1.293a1 1 0 1 0 1.414 1.414L10 15.414l2.293 2.293a1 1 0 0 0 1.414-1.414L12.414 15H15a2 2 0 0 0 2-2V5a1 1 0 1 0 0-2H3Zm11.707 4.707a1 1 0 0 0-1.414-1.414L10 9.586 8.707 8.293a1 1 0 0 0-1.414 0l-2 2a1 1 0 1 0 1.414 1.414L8 10.414l1.293 1.293a1 1 0 0 0 1.414 0l4-4Z" clip-rule="evenodd"/></svg>
